src/images_karasa_jaga_svg/cmd/lc_fontworkshapetype.fontwork-wave.svg

<svg height="24" viewBox="0 0 24 24" width="24" xmlns="http://www.w3.org/2000/svg" xmlns:xlink="http://www.w3.org/1999/xlink"><linearGradient id="a" gradientUnits="userSpaceOnUse" x1=".001953" x2="127.99805" y1="64.219604" y2="64.219604"><stop offset="0" stop-color="#7c9fcf"/><stop offset=".5" stop-color="#7c9ece"/><stop offset="1" stop-color="#7b9dcf"/></linearGradient><linearGradient id="b" gradientUnits="userSpaceOnUse" x1="63.9991" x2="63.82843" y1="128" y2="1.347994"><stop offset="0" stop-color="#fff"/><stop offset=".46428573" stop-color="#fff"/><stop offset=".78125" stop-color="#f1f1f1"/><stop offset=".90625" stop-color="#eaeaea"/><stop offset="1" stop-color="#dfdfdf"/></linearGradient><g transform="matrix(.171875 0 0 .171875 1 1)"><path d="m38.207031 15.226562c-15.639723-.259477-27.588092 9.474121-35.0605466 13.310547a5.7897907 5.7897907 0 0 0 -3.14453127 5.150391v60.623047a5.7897907 5.7897907 0 0 0 10.52539087 3.328125c7.142074-10.16645 13.550463-12.254117 21.689453-11.324219s18.161013 6.101149 28.646484 12.861328l-.09375-.06055c15.221867 10.238109 27.962912 14.707439 39.210938 14.037109 11.248021-.67032 20.221791-6.84636 26.794921-15.285155a5.7897907 5.7897907 0 0 0 1.22266-3.556641v-60.623044a5.7897907 5.7897907 0 0 0 -10.18555-3.765625c-7.16224 8.361884-14.20335 12.160912-21.953125 12.310547-7.749774.149634-17.071641-3.578396-28.111328-12.957031l.310547.283203c-10.187264-10.014306-20.467651-14.176344-29.851563-14.332032z" fill="url(#a)"/><path d="m5.7906153 33.687803v60.622897c16.0444987-22.838687 36.7739267-13.819841 58.2093847 0 29.234602 19.66295 46.39202 15.17152 58.20939 0v-60.622897c-15.73016 18.364886-34.83473 19.857666-58.20939 0-25.102178-24.675998-44.708038-6.931716-58.2093847 0z" fill="url(#b)"/></g></svg>

<?xml version="1.0" encoding="UTF-8" standalone="no"?>
<!-- Created with Inkscape (http://www.inkscape.org/) -->

<svg
   xmlns:dc="http://purl.org/dc/elements/1.1/"
   xmlns:cc="http://creativecommons.org/ns#"
   xmlns:rdf="http://www.w3.org/1999/02/22-rdf-syntax-ns#"
   xmlns:svg="http://www.w3.org/2000/svg"
   xmlns="http://www.w3.org/2000/svg"
   xmlns:xlink="http://www.w3.org/1999/xlink"
   xmlns:sodipodi="http://sodipodi.sourceforge.net/DTD/sodipodi-0.dtd"
   xmlns:inkscape="http://www.inkscape.org/namespaces/inkscape"
   version="1.1"
   id="svg2"
   width="128"
   height="128"
   viewBox="0 0 128 128"
   sodipodi:docname="lc_fontworkshapetype.fontwork-wave.svg"
   inkscape:export-filename="/home/rizmut/Dokumen/Rizmut/Github/libreoffice-style-karasa-jaga/build/images_karasa_jaga/cmd/lc_fontworkshapetype.fontwork-wave.png"
   inkscape:export-xdpi="16.5"
   inkscape:export-ydpi="16.5"
   inkscape:version="0.92.3 (unknown)">
  <metadata
     id="metadata8">
    <rdf:RDF>
      <cc:Work
         rdf:about="">
        <dc:format>image/svg+xml</dc:format>
        <dc:type
           rdf:resource="http://purl.org/dc/dcmitype/StillImage" />
        <dc:title></dc:title>
      </cc:Work>
    </rdf:RDF>
  </metadata>
  <defs
     id="defs6">
    <linearGradient
       id="linearGradient7422">
      <stop
         style="stop-color:#7c9fcf;stop-opacity:1"
         offset="0"
         id="stop7424" />
      <stop
         id="stop5348"
         offset="0.5"
         style="stop-color:#7c9ece;stop-opacity:1" />
      <stop
         id="stop7426"
         offset="1"
         style="stop-color:#7b9dcf;stop-opacity:1" />
    </linearGradient>
    <linearGradient
       id="linearGradient3369">
      <stop
         id="stop3372"
         offset="0"
         style="stop-color:#ffffff;stop-opacity:1;" />
      <stop
         style="stop-color:#ffffff;stop-opacity:1;"
         offset="0.46428573"
         id="stop3374" />
      <stop
         style="stop-color:#f1f1f1;stop-opacity:1;"
         offset="0.78125"
         id="stop3376" />
      <stop
         id="stop3378"
         offset="0.90625"
         style="stop-color:#eaeaea;stop-opacity:1;" />
      <stop
         id="stop3384"
         offset="1"
         style="stop-color:#dfdfdf;stop-opacity:1;" />
    </linearGradient>
    <linearGradient
       inkscape:collect="always"
       xlink:href="#linearGradient7422"
       id="linearGradient878"
       x1="0.0019531209"
       y1="64.219604"
       x2="127.99805"
       y2="64.219604"
       gradientUnits="userSpaceOnUse" />
    <linearGradient
       inkscape:collect="always"
       xlink:href="#linearGradient3369"
       id="linearGradient886"
       x1="63.9991"
       y1="128"
       x2="63.82843"
       y2="1.3479942"
       gradientUnits="userSpaceOnUse" />
  </defs>
  <sodipodi:namedview
     pagecolor="#ffffff"
     bordercolor="#666666"
     borderopacity="1"
     objecttolerance="10"
     gridtolerance="10"
     guidetolerance="10"
     inkscape:pageopacity="0"
     inkscape:pageshadow="2"
     inkscape:window-width="1366"
     inkscape:window-height="706"
     id="namedview4"
     showgrid="true"
     inkscape:snap-page="true"
     inkscape:snap-global="true"
     inkscape:zoom="1.7320077"
     inkscape:cx="-2.6199052"
     inkscape:cy="69.76537"
     inkscape:window-x="0"
     inkscape:window-y="0"
     inkscape:window-maximized="1"
     inkscape:current-layer="svg2">
    <inkscape:grid
       type="xygrid"
       id="grid812"
       spacingx="5.8181"
       spacingy="5.8181"
       empspacing="1" />
  </sodipodi:namedview>
  <path
     sodipodi:type="inkscape:offset"
     inkscape:radius="5.7892118"
     inkscape:original="M 38.111328 21.015625 C 25.052321 20.798964 14.229357 29.355178 5.7910156 33.6875 L 5.7910156 94.310547 C 21.835514 71.47186 42.564542 80.490706 64 94.310547 C 93.234602 113.9735 110.39161 109.48207 122.20898 94.310547 L 122.20898 33.6875 C 106.47882 52.052386 87.37466 53.545166 64 33.6875 C 54.586683 24.434001 45.946733 21.145621 38.111328 21.015625 z "
     style="opacity:1;fill:url(#linearGradient878);fill-opacity:1.0;stroke:none;stroke-width:5.11951113;stroke-linecap:round;stroke-linejoin:bevel;stroke-miterlimit:4;stroke-dasharray:none;stroke-dashoffset:0;stroke-opacity:1"
     id="path868"
     d="M 38.207031,15.226562 C 22.567308,14.967085 10.618939,24.700683 3.1464844,28.537109 A 5.7897907,5.7897907 0 0 0 0.00195313,33.6875 V 94.310547 A 5.7897907,5.7897907 0 0 0 10.527344,97.638672 c 7.142074,-10.16645 13.550463,-12.254117 21.689453,-11.324219 8.13899,0.929898 18.161013,6.101149 28.646484,12.861328 l -0.09375,-0.06055 c 15.221867,10.238106 27.962912,14.707436 39.210938,14.037106 11.248021,-0.67032 20.221791,-6.84636 26.794921,-15.285152 a 5.7897907,5.7897907 0 0 0 1.22266,-3.556641 V 33.6875 A 5.7897907,5.7897907 0 0 0 117.8125,29.921875 C 110.65026,38.283759 103.60915,42.082787 95.859375,42.232422 88.109601,42.382056 78.787734,38.654026 67.748047,29.275391 l 0.310547,0.283203 C 57.87133,19.544288 47.590943,15.38225 38.207031,15.226562 Z" />
  <path
     style="opacity:1;fill:url(#linearGradient886);fill-opacity:1;stroke:none;stroke-width:5.11951113;stroke-linecap:round;stroke-linejoin:bevel;stroke-miterlimit:4;stroke-dasharray:none;stroke-dashoffset:0;stroke-opacity:1"
     d="M 5.7906153,33.687803 V 94.3107 C 21.835114,71.472013 42.564542,80.490859 64,94.3107 c 29.234602,19.66295 46.39202,15.17152 58.20939,0 V 33.687803 c -15.73016,18.364886 -34.83473,19.857666 -58.20939,0 -25.102178,-24.675998 -44.708038,-6.931716 -58.2093847,0 z"
     id="rect3937-3"
     inkscape:connector-curvature="0"
     sodipodi:nodetypes="ccccccc" />
</svg>
